X: 08103
T: SKIP'S HORNPIPE
C: Bob McQuillen 15 Jan 91
B: Bob's Note Book 8 #103
%R: hornpipe, reel
Z: 2021 John Chambers <jc:trillian.mit.edu>
M: C
L: 1/8
K: D
AB \
| d2df edcB | A2AB AGFE | DFAF GBAG | FAFD E2AB |\
| d2df edcB | ABAB AGFE | DFAF GBAG | F2D2 D2 :|
|: de \
| f2fd edBA | fafd edBA | defa gfed | c2A2 A2dc |\
| B2BA BcdB | ABAG F2A2 | d2fa gecd | e2d2 d2 :|
%%begintext align
%% Every so often Skip
%% Gorman gets pursuaded to leave the wilds of Grafton NH
%% and come down this way long enough to play his fiddle
%% at one of our dances. That's real nice when it happens,
%% and even nicer (for me, anyway) is when I'm playing piano
%% along with him! Hope you'll come again soon, Skip!
%%endtext

%%sep 1 1 500

%%sep 1 1 500

